X: 13827
T: Four Province Fling, The
R: hornpipe
M: 4/4
K: Dmajor
|:d>e|f>gf>e d>cd>A|F<AA>d c<ee>a|
f2 f>e d>FA>d|c<ea>g f<d-:|
|:d>A|:D<EE>D F<AA>d|1 B>dd>B c<ee>A|
D>E (3EED F>A (3AAd|B/c/d e/f/g f<d-:|
[2 B>dd>B c<e (3eea|f>gf>e d>FA>d|c<ea>g f<d-||

